sprites/streets-v8/_svg/library-15.svg

<?xml version="1.0" encoding="UTF-8" standalone="no"?>
<svg
   xmlns:dc="http://purl.org/dc/elements/1.1/"
   xmlns:cc="http://creativecommons.org/ns#"
   xmlns:rdf="http://www.w3.org/1999/02/22-rdf-syntax-ns#"
   xmlns:svg="http://www.w3.org/2000/svg"
   xmlns="http://www.w3.org/2000/svg"
   id="svg2"
   width="23"
   height="23"
   viewBox="0 0 23 23"
   version="1.1">
  <metadata
     id="metadata14">
    <rdf:RDF>
      <cc:Work
         rdf:about="">
        <dc:format>image/svg+xml</dc:format>
        <dc:type
           rdf:resource="http://purl.org/dc/dcmitype/StillImage" />
      </cc:Work>
    </rdf:RDF>
  </metadata>
  <defs
     id="defs12" />
  <ellipse
     id="ellipse4"
     ry="11.5"
     rx="11.5"
     cy="11.5"
     cx="11.5"
     style="fill:#ffffff;stroke:none;" />
  <ellipse
     id="ellipse6"
     ry="10.5"
     rx="10.5"
     cy="11.5"
     cx="11.5"
     style="fill:#a9a199;stroke:none;" />
  <g
     id="g8"
     transform="translate(5,5)">
      <defs     id="defs4621" />  <metadata     id="metadata4624">    <rdf:RDF>      <cc:Work         rdf:about="">        <dc:format>image/svg+xml</dc:format>        <dc:type           rdf:resource="http://purl.org/dc/dcmitype/StillImage" />        <dc:title />      </cc:Work>    </rdf:RDF>  </metadata>  <path     id="rect5810"     d="M 0.40326286,2.4540441 C 2.3786477e-4,2.4592782 0,2.9193473 0,2.9193474 l 0,6.617647 c 0,0 -0.01722239,0.6020406 0.6014476,0.7703356 l 4.69267,1.251148 0,0.239546 c 0,0.307301 0.2476166,0.554917 0.5549172,0.554917 l 1.5372243,0 c 0.3073006,0 0.5549173,-0.247616 0.5549173,-0.554917 l 0,-0.239546 4.6926696,-1.251148 c 0.618671,-0.168295 0.601448,-0.7703356 0.601448,-0.7703356 l 0,-6.617647 c 0,-10e-8 1.53e-4,-0.6000791 -0.601448,-0.4360065 L 6.617647,4.1239659 0.6014476,2.4833409 c -0.0752,-0.020509 -0.14060974,-0.030044 -0.19818474,-0.029297 z m 0.47909007,1.0684742 5.29411757,1.3941866 0,5.7421871 -5.29411757,-1.3941862 0,-5.7421875 z m 11.47058807,0 0,5.7421875 -5.2941176,1.3941862 0,-5.7421871 5.2941176,-1.3941866 z m -10.1470587,1.5062041 0,0.4411765 2.2058823,0.5893841 0,-0.4411765 -2.2058823,-0.5893841 z m 8.8235297,0 -2.6470592,0.7065716 0,0.4411765 2.6470592,-0.7065716 0,-0.4411765 z m -8.8235297,0.8823529 0,0.4411765 2.6470588,0.7065716 0,-0.4411764 -2.6470588,-0.7065717 z m 8.8235297,0 -2.6470592,0.7065717 0,0.4411764 2.6470592,-0.7065716 0,-0.4411765 z m -8.8235297,0.882353 0,0.4411764 1.3235294,0.3532859 0,-0.4411765 -1.3235294,-0.3532858 z m 7.9411767,0.2360983 -1.7647062,0.4704733 0,0.4411765 1.7647062,-0.4704733 0,-0.4411765 z m -7.9411767,0.6462546 0,0.4411765 2.6470588,0.7065716 0,-0.4411765 -2.6470588,-0.7065716 z m 8.8235297,0 -2.6470592,0.7065716 0,0.4411765 2.6470592,-0.7065716 0,-0.4411765 z"     style="opacity:1;fill:#ffffff;fill-opacity:1;stroke:none;stroke-width:1.76470578;stroke-linecap:round;stroke-linejoin:round;stroke-miterlimit:4;stroke-dasharray:none;stroke-dashoffset:0;stroke-opacity:1;marker:none" />
  </g>
</svg>

<?xml version="1.0" encoding="utf-8"?>
<!-- Generator: Adobe Illustrator 17.1.0, SVG Export Plug-In . SVG Version: 6.00 Build 0)  -->
<!DOCTYPE svg PUBLIC "-//W3C//DTD SVG 1.1//EN" "http://www.w3.org/Graphics/SVG/1.1/DTD/svg11.dtd">
<svg version="1.1"
	 id="svg2" xmlns:svg="http://www.w3.org/2000/svg" xmlns:cc="http://creativecommons.org/ns#" xmlns:dc="http://purl.org/dc/elements/1.1/" xmlns:rdf="http://www.w3.org/1999/02/22-rdf-syntax-ns#"
	 xmlns="http://www.w3.org/2000/svg" xmlns:xlink="http://www.w3.org/1999/xlink" x="0px" y="0px" width="23px" height="23px"
	 viewBox="0 0 23 23" enable-background="new 0 0 23 23" xml:space="preserve">
<ellipse id="ellipse4" fill="#FFFFFF" cx="11.5" cy="11.5" rx="11.5" ry="11.5"/>
<ellipse id="ellipse6" fill="#A9A199" cx="11.5" cy="11.5" rx="10.5" ry="10.5"/>
<g id="g8" transform="translate(5,5)">
	<path id="rect5810" fill="#FFFFFF" d="M0.4,2.5C0,2.5,0,2.9,0,2.9v6.6c0,0,0,0.6,0.6,0.8l4.7,1.3v0.2c0,0.3,0.2,0.6,0.6,0.6h1.5
		c0.3,0,0.6-0.2,0.6-0.6v-0.2l4.7-1.3c0.6-0.2,0.6-0.8,0.6-0.8V2.9c0,0,0-0.6-0.6-0.4l-6,1.6l-6-1.6C0.5,2.5,0.5,2.5,0.4,2.5z
		 M0.9,3.5l5.3,1.4v5.7L0.9,9.3V3.5z M12.4,3.5v5.7l-5.3,1.4V4.9L12.4,3.5z M2.2,5v0.4L4.4,6V5.6L2.2,5z M11,5L8.4,5.7v0.4L11,5.5V5
		z M2.2,5.9v0.4L4.8,7V6.6C4.9,6.6,2.2,5.9,2.2,5.9z M11,5.9L8.4,6.6V7L11,6.4V5.9z M2.2,6.8v0.4l1.3,0.4V7.1L2.2,6.8z M10.1,7
		L8.4,7.5v0.4l1.8-0.5L10.1,7L10.1,7z M2.2,7.7v0.4l2.6,0.7V8.4C4.9,8.4,2.2,7.7,2.2,7.7z M11,7.7L8.4,8.4v0.4L11,8.1V7.7z"/>
</g>
</svg>
